!!!!SEGMENT: pl-wtm--a-37-484_kagan-jakub--nie-trzeba-slow-nie-znales-mocy.krn
!!!cenid: 19xx:19
!!!COM: Kagan, Jakub
!!!COM-rismID: pe50046719
!!!CDT: 1896/02/07-1942
!!!CNT: Polish
!!!OTL: Nie trzeba słów/Nie znałeś mocy
!!!PDT: 1930
!!!AGN: Secular
!!!YEC: Copyright 2022 Narodowy Instytut Fryderyka Chopina (https://polishscores.org)
!!!YEM: License CC-BY-4.0 (https://creativecommons.org/licenses/by/4.0)
!!!SMS-siglum: PL-Wtm
!!!SMS-shelfmark: A.37.484
!!!SMS-variant:
!!!SMS-altvar:
!!!SMS-shelfwork: W
!!!NIFC-rismSourceID: 1001219449
!!!NIFC-rismChildID: 1001219449
!!!NIFC-islandoraID: pl-wtm:96609
!!!URL-pdf-islandora: https://repozytorium.nifc.pl/islandora/object/pl-wtm%3A96609/datastream/PDF/view
!!!URL-scan: https://polish.musicsources.pl/pl/lokalizacje/galeria/druki-muzyczne/21699/2 @EN{Scan on Polish Music Sources Website} @PL{Skany w portalu Dziedzictwo Muzyki Polskiej w otwartym dostępie}
!!!IIIF:
!!!ONB-nifc:
!!!AIN: 1 piano 1 vox
!!!key:
**kern	**kern	**kern	**text	**text
*part2	*part2	*part1	*part1	*part1
*staff3	*staff2	*staff1	*staff1	*staff1
*I"PIANO	*	*I"ŚPIEW	*	*
*Ipiano	*	*Ivox	*	*
*ICklav	*	*ICvox	*	*
*IGacmp	*	*IGsolo	*	*
*clefF4	*clefG2	*clefG2	*	*
*k[b-e-a-]	*k[b-e-a-]	*k[b-e-a-]	*	*
*C:	*C:	*C:	*	*
*M2/4	*M2/4	*M2/4	*	*
*>[A,A]	*>[A,A]	*>[A,A]	*	*
*>A	*>A	*>A	*	*
*	*	*	*v:1	*v:2
8r	16bn\LL	16bn\	Nie	Wiem,
.	16cc\	16cc\	zna-	że
16r	16dd\JJ	16dd\	-łeś	mnie
=1	=1	=1	=1	=1
.	(16qqcc/LL	.	.	.
.	16qqcc#X/	.	.	.
.	16qqdd/JJ	.	.	.
8CC:/L 8GG: 8E-:	8.ee-\L)	8.ee-\	mo-	rzu-
8c/J 8e- 8g	.	.	.	.
.	16dd\Jk	16dd\	-cy,	-cisz,
8c/L 8e- 8g	16ccn\LL	16ccn\	któ-	al-
.	16b-\	16b-\	-ra	-bo
8CC:/J 8GG: 8E-:	16a-\	16a-/	wła-	ja
.	16g\JJ	16g/	-dnie	cię
=2	=2	=2	=2	=2
8FF:/L 8C: 8A-:	8g/L	8g/	du-	rzu-
8FF/J 8C 8A-	[8f/J	[8f/	-szą,	-cę
8r	16f/LL]	16f/]	.	.
.	16f/	16f/	Bez-	A
8FF:/ 8C: 8A-:	16g/	16g/	-sen-	gdy
.	16a-/JJ	16a-/	-nych	po-
!!LO:LB:g=original
=3	=3	=3	=3	=3
*	*	*	*v:1	*v:2
8GG/L 8E- 8G	16f/KL	16f/	no-	-wró-
.	8e-/	8e-/	-cy	-cisz,
8GG/J 8E- 8G	.	.	.	.
.	16f/Jk	16f/	ni	ja
8GG:/L 8BBn: 8F:	16e-/KL	16e-/	ma-	mo-
.	8d/	8d/	-rzeń,	-że
8GG/J 8BB 8F	.	.	.	.
.	16e-/Jk	16e-/	co	nie
=4	=4	=4	=4	=4
8CC:/L 8GG: 8E-:	8d/L	8d/	ku-	wró-
8CC:/ 8GG: 8E-:	8c/J	8c/	-szą	-cę
8CC:/J 8GG: 8E-:	16r	16r	.	.
.	16bn\LL	16bn\	Przy-	To
8r	16cc\	16cc\	-sze-	wiem,
.	16dd\JJ	16dd\	-dłeś	że
=5	=5	=5	=5	=5
.	(16qqcc/LL	.	.	.
.	16qqcc#X/	.	.	.
.	16qqdd/JJ	.	.	.
8CC:/L 8GG: 8E-:	8.ee-\L)	8.ee-\	do	nig-
8c/J 8e- 8g	.	.	.	.
.	16dd\Jk	16dd\	mnie,	-dy
8c/L 8e- 8g	16ff\LL	16ff\	nio-	ser-
.	16ee-\	16ee-\	-sąc	-ca
8CC:/J 8GG: 8E-:	32dd\L	(32dd\	dar	ci
.	32ccny\	32cc\)	.	.
.	32b-\	(32b-\	pie-	nie
.	32a-\JJJ	32a-/)	.	.
!!LO:LB:g=original
=6	=6	=6	=6	=6
*	*	*	*v:1	*v:2
8FF:/L 8C: 8A-:	8g/L	8g/	-szczo-	zra-
8FF:/J 8C: 8A-:	[8f/J	[8f/	-ty	-nię
8r	16f/LL]	16f/]	.	.
.	16f/	16f/	Bo	Boś
8FF/ 8C-X 8A-	16g/	16g/	le-	nie
.	16a-/JJ	16a-/	-cisz	dał
=7	=7	=7	=7	=7
8BB-\L 8E- 8G	16b-\KL	16b-\	z kwia-	ser-
.	8g\	8g/	-tów	-ca,
8BB-\J 8E- 8G	.	.	.	.
.	16b-\Jk	16b-\	na	a
8BB-\L 8D 8A-	16a-/KL	16a-/	kwia-	tyl-
.	8f/	8f/	-ty,	-ko
8BB-\J 8D 8A-	.	.	.	.
.	16a-/Jk	16a-/	jak	ko-
=8	=8	=8	=8	=8
8EE-:/L 8BB-: 8G:	8g/L	8g/	mo-	-cha-
8EE-:/ 8BB-: 8G:	[8e-/J	[8e-/	-tyl	-nie
8EE-:/J 8BB-: 8G:	16e-/LL]	16e-/]	.	.
.	16e-/	16e-/	Dla-	Dla-
8r	16f/	16f/	-te-	-te-
.	16f#X/JJ	16f#X/	-go	-go
!!LO:LB:g=original
=9	=9	=9	=9	=9
*	*	*	*v:1	*v:2
8E-\L 8G 8B- 8d-X	8.g/L	8.g/	dziś	dziś
8E-\ 8G 8B- 8d-	.	.	.	.
.	16f#X/Jk	16f#X/	we-	we-
8E-\J 8G 8B- 8d-	16g/LL	16g/	-so-	-so-
.	16f#/J	16f#/	-ło	-ło
8r	32g/LL	16g/	brzmi	wzrok
.	32f#/	.	.	.
.	32g/	16a-/	ma	twój
.	32a-/JJJ	.	.	.
=10	=10	=10	=10	=10
8AAn/L 8C#X 8G	[4an/	[4an/	pieśń	lśni
8AA/ 8C# 8G	.	.	.	.
8AA/J 8C# 8G	16a/LL]	16a/]	.	.
.	16f#X/	16f#X/	Dla-	I
8r	16g/	16g/	-te-	je-
.	16g#/JJ	16g#/	-go	-szcze
=11	=11	=11	=11	=11
8D\L 8F#X 8c	8.an/L	8.an/	dziś	dziś
8D\ 8F# 8c	.	.	.	.
.	16g#X/Jk	16g#X/	nie	za-
8D\J 8F# 8c	16a/LL	16a/	błą-	-pu-
.	16g#/J	16g#/	-dzą	-kasz
8r	32a/LL	16a/	my-	w in-
.	32g#/	.	.	.
.	32a/	16a#X/	-śli	-ne
.	32a#X/JJJ	.	.	.
=12	=12	=12	=12	=12
8G\L 8d 8f	[4bn\	[4bn\	gdzieś	drzwi,
8G\ 8d 8f	.	.	.	.
8G\J 8d 8f	16b\LL]	16b\]	.	.
.	16b\	16b\	W ra-	Nie
8r	16cc\	16cc\	-mio-	war-
.	16dd\JJ	16dd\	-nach	-to
!!LO:PB:g=original
=13	=13	=13	=13	=13
.	(16qqcc/LL	.	.	.
.	16qqcc#X/	.	.	.
.	16qqdd/JJ	.	.	.
*	*	*	*v:1	*v:2
8CC:/L 8GG: 8E-:	8.ee-\L)	8.ee-\	two-	my-
8c/J 8e- 8g	.	.	.	.
.	16dd\Jk	16dd\	-ich	-śleć,
8c/L 8e- 8g	16ccn\LL	16ccn\	sen	co
.	16b-\	16b-\	prze-	się
8CC:/J 8GG: 8E-:	16a-\	16a-/	-ży-	po-
.	16g\JJ	16g/	-wam	-tem
=14	=14	=14	=14	=14
8FF:/L 8C: 8A-:	8g/L	8g/	zło-	sta-
8FF:/J 8C: 8A-:	[8f/J	[8f/	-ty	-nie
8r	16f/LL]	16f/]	.	Cień
.	16f/	16f/	Znaj-	bla-
!LO:N:vis=4	!	!	!	!
8FF:/ 8C: 8A-:	16g/	16g/	-du-	-dych
.	16a-/JJ	16a-/	-ję	wspo-
=15	=15	=15	=15	=15
8GG/L 8E- 8G	16f/KL	16f/	szczę-	-mnień
.	8e-/	8e-/	-ście	zo-
8GG/J 8E- 8G	.	.	.	.
.	16f/Jk	16f/	blask	-sta-
8GG:/L 8BBn: 8F:	16e-/KL	16e-/	ży-	-nie
.	8d/	8d/	-cia	z tych
8GG:/J 8BB: 8F:	.	.	.	.
.	16e-/Jk	16e-/	i	dni!
=16	=16	=16	=16	=16
8CC/L 8C	4c/	4c/	treść!	.
8GG/	.	.	.	.
8CC/J	16r	16r	.	.
*	*	*	*v:1.2.	*
!	!	!LO:TX:a:t=REFRAIN.	!	!
.	16cc\LL	16cc\	Nie	.
8r	16bn\	16bn\	trze-	.
.	16a-\JJ	16a-/	-ba	.
!!LO:LB:g=original
=17||	=17||	=17||	=17||	=17||
*k[]	*k[]	*k[]	*	*
8C/L	8.g/L	8.g/	słów	.
8G/J 8c 8e	.	.	.	.
.	16e/Jk	16e/	Co	.
8G/L 8c 8e	16g/LL	16g/	chło-	.
.	16e/	16e/	-dzą	.
8GG/J	16g/	16g/	ust	.
.	16a/JJ	16a/	go-	.
=18	=18	=18	=18	=18
8D\L	16g/LL	16g/	-rą-	.
.	16f#X/J	16f#X/	-cych	.
8F\J 8G 8B	[8fn/J	[8fn/	żar	.
8F\L 8G 8B	16f\LL]	16f/]	.	.
.	16dd\	16dd\	Nie	.
8GG\J	16cc\	16cc\	trze-	.
.	16b\JJ	16b\	-ba	.
=19	=19	=19	=19	=19
8BB\L	8.a/L	8.a/	snów	.
8G\J 8d 8f 8a	.	.	.	.
.	16g/Jk	16g/	Ni	.
8G\L 8d 8f 8a	16a/LL	16a/	roz-	.
.	16g/	16g/	-tę-	.
8GG\J	16a/	16a/	-sknio-	.
.	16b/JJ	16b\	-nych	.
=20	=20	=20	=20	=20
8C\L	[4cc\	[4cc\	skarg	.
8G\J 8c 8e	.	.	.	.
8G\L 8c 8e	16cc\LL]	16cc\]	.	.
.	16cc\	16cc\	Po-	.
8GG\J	16b\	16b\	-ca-	.
.	16a\JJ	16a/	-łuj	.
!!LO:LB:g=original
=21	=21	=21	=21	=21
8C\L	8.g/L	8.g/	mnie	.
8G\J 8c 8e	.	.	.	.
.	16e/Jk	16e/	I	.
8G\L 8c 8e	16g/LL	16g/	da-	.
.	16e/	16e/	-ruj	.
16E\L	16g/	16g/	mi	.
16E-X\JJ	16a/JJ	16a/	tę	.
=22	=22	=22	=22	=22
8D\L	8b/L	8b\	chwi-	.
8G\ 8B 8d	[8g/J	[8g/	-lę	.
8G\J 8B 8d	16g/LL]	16g/]	.	.
.	16b/	16b\	Do	.
8r	16cc/	16cc\	sza-	.
.	16cc#X/JJ	16cc#X\	-łu	.
=23	=23	=23	=23	=23
8D\L	8.dd\L	8.dd\	mnie	.
8A\J 8c 8f#X	.	.	.	.
.	16cc#X\Jk	16cc#X\	pie-	.
8A\ 8c 8f#	16ee\LL	16ee\	-szczo-	.
.	16dd\	16dd\	-tą	.
8r	16ccn\	16ccn\	pro-	.
.	16a\JJ	16a/	-wadź	.
=24	=24	=24	=24	=24
16GG\LL 16G	[4g/	[4g/	warg	.
16A\	.	.	.	.
16B\	.	.	.	.
16A\JJ	.	.	.	.
8G\	16g\LL]	16g/]	.	.
.	16cc\	16cc\	Nie	.
8r	16b\	16b\	trze-	.
.	16a\JJ	16a/	-ba	.
!!LO:LB:g=original
=25	=25	=25	=25	=25
8C\L	8.g/L	8.g/	słów	.
8G\J 8c 8e	.	.	.	.
.	16e/Jk	16e/	U-	.
8G\L 8c 8e	16g/LL	16g/	-cie-	.
.	16e/	16e/	-ka	.
8GG\J	16g/	16g/	szczę-	.
.	16a/JJ	16a/	-ście	.
=26	=26	=26	=26	=26
8D\L	16g/LL	16g/	z każ-	.
.	16f#X/J	16f#X/	-dym	.
8F\J 8G 8B	[8fn/J	[8fn/	dniem	.
8F\L 8G 8B	16f\LL]	16f/]	.	.
.	16dd\	16dd\	Nie	.
8GG\J	16cc\	16cc\	trze-	.
.	16b\JJ	16b\	-ba	.
=27	=27	=27	=27	=27
8BB\L	8.a/L	8.a/	słów	.
8G\J 8d 8f 8a	.	.	.	.
.	16g/Jk	16g/	Bo	.
8G\L 8d 8f 8a	16a/LL	16a/	sa-	.
.	16g/	16g/	-ma	.
8GG\J	16a/	16a/	do-	.
.	16b/JJ	16b\	-brze	.
=28	=28	=28	=28	=28
8C\L	[4cc\	[4cc\	wiem	.
8G\J 8c 8e	.	.	.	.
16G\LL 16c 16e	16cc\LL]	16cc\]	.	.
16C\	16cc\	16cc\	że	.
16BB\	16dd\	16dd\	ju-	.
16BB-\JJ	16dd#X\JJ	16dd#X\	-tro	.
!!LO:LB:g=original
=29	=29	=29	=29	=29
8AA\L	8.ee\L	8.ee\	cię	.
8G\J 8A 8c#X	.	.	.	.
.	16ff\Jk	16ff\	w ra -	.
8G\L 8A 8c#	16ee\LL	16ee\	-mio-	.
.	16dd#X\	16dd#X\	-na	.
8AA\J	16ee\	16ee\	weź	.
.	16gg\JJ	16gg\	mie	.
=30	=30	=30	=30	=30
8D\L	8ff\L	8ff\	o-	.
8F\J 8A 8d	[8dd\J	[8dd\	-na	.
8A\L 8d 8f	16dd\LL]	16dd\]	.	.
.	16cc\	16cc\	a	.
8F#X\J 8c 8d#X	16b\	16b\	po-	.
.	16a\JJ	16a/	-tem	.
=31	=31	=31	=31	=31
8GG\L	16a\LL	16a/	in-	.
.	16g\J	16g/	-na	.
8G\J 8c 8e	[8g\J [8ee	[8ee\	znów	.
8GG\L	16g\LL] 16ee]	16ee\]	.	.
.	16f#X\ 16dd#X	16dd#X\	Nie	.
8F\J 8G 8B	16g\ 16ee	16ee\	trze-	.
.	16fn\JJ 16ddn	16ddn\	-ba	.
=32	=32	=32	=32	=32
8C\L 8c	8e/L 8cc	8cc\	słów!	.
8GG\ 8G	8B/ 8f 8g	8r	.	.
8C\J 8G	8c/J 8e 8g 8cc	4r	.	.
8r	8r	.	.	.
==	==	==	==	==
*-	*-	*-	*-	*-
!!!system-decoration: s1{(s2,s3)}
!!!RDF**kern: < = below
!!!RDF**kern: > = above
!!!ENC: Anastazja Marusiak
!!!END: 2023-08-27
!!!ENC: Marta Chmielewska
!!!END: 2023-09-23
